X: 2515
T: Ballydesmond, The
R: polka
M: 2/4
K: Adorian
|:EA AB|cd eg|GG/F/ GA|GE ED|
EA AB|cd ef|ge dB|1 A2 AG:|2 A2 Ae||
|:a2 ab|ag ef|gg/f/ ga|ge ce|
a2 ab|ag ef|ge dB|1 A2 Ae:|2 A2 AG||

